svg/color/grndon.svg

<svg width="40" height="40" viewBox="0 0 40 40" fill="none" xmlns="http://www.w3.org/2000/svg">
<g clip-path="url(#clip0_821_4137)">
<path d="M20 0C31.0457 0 40 8.9543 40 20C40 31.0457 31.0457 40 20 40C8.95431 40 7.90517e-06 31.0457 0 20C6.58765e-07 8.95431 8.95431 1.97595e-06 20 0Z" fill="#FEF0D0"/>
<path d="M26 6C30.4183 6 34 9.58172 34 14V26C34 30.4183 30.4183 34 26 34H14C9.58172 34 6 30.4183 6 26V14C6 9.58172 9.58172 6 14 6H26Z" fill="#FCB316"/>
<path d="M28.4211 12.1041C28.0725 11.7637 27.7038 11.4442 27.3169 11.1476C27.251 11.0991 27.176 11.0643 27.0963 11.0454C27.0166 11.0265 26.9339 11.0239 26.8531 11.0376C24.571 11.4111 22.264 11.6133 19.9515 11.6424C17.6346 11.6049 15.3239 11.3936 13.0389 11.0101C12.9573 10.9949 12.8734 10.9968 12.7926 11.0158C12.7118 11.0347 12.6358 11.0702 12.5696 11.1201C12.1761 11.4269 11.8018 11.7574 11.4488 12.1096C11.339 12.2037 11.2682 12.3349 11.25 12.478V13.8194C11.25 13.8194 11.25 14.7649 11.2831 15.3147C11.4344 19.0695 12.1682 22.7783 13.4585 26.3097C13.4924 26.4029 13.5493 26.4862 13.6241 26.5516C15.3799 28.0744 18.1074 29.3333 19.9515 29.3333C21.7956 29.3333 24.501 28.0799 26.2679 26.5516C26.3427 26.4862 26.3996 26.4029 26.4335 26.3097C27.72 22.7777 28.4501 19.0689 28.5978 15.3147C28.5978 14.7649 28.631 14.2812 28.631 13.8304V12.4835C28.6126 12.3377 28.5397 12.2042 28.4267 12.1096L28.4211 12.1041ZM18.6485 22.4614L18.6154 22.5164C17.9252 23.7369 16.8099 23.8908 15.5566 23.396C14.3033 22.9012 13.2487 21.8787 13.6794 20.4494C14.099 19.1629 16.1087 19.6797 17.0473 19.8996C18.3614 20.2295 19.3663 20.9991 18.6595 22.3955C18.6871 22.3625 18.6982 22.3515 18.6375 22.4614H18.6485ZM26.2237 21.5709C25.9034 22.8738 24.5949 23.55 23.2974 23.6929C22.1159 23.8138 21.0668 22.6704 21.0226 21.4939V21.4389V21.4059C21.0613 20.0151 23.1207 19.7567 24.1587 19.6632C25.528 19.5313 26.6046 19.9931 26.2237 21.5709Z" fill="white"/>
</g>
<defs>
<clipPath id="clip0_821_4137">
<rect width="40" height="40" fill="white"/>
</clipPath>
</defs>
</svg>

<svg xmlns="http://www.w3.org/2000/svg" width="40" height="40" fill="none" viewBox="0 0 40 40"><g clip-path="url(#grndon_svg-a)"><path fill="#FEF0D0" d="M20 0c11.046 0 20 8.954 20 20s-8.954 20-20 20S0 31.046 0 20 8.954 0 20 0"/><path fill="#FCB316" d="M26 6a8 8 0 0 1 8 8v12a8 8 0 0 1-8 8H14a8 8 0 0 1-8-8V14a8 8 0 0 1 8-8z"/><path fill="#fff" d="M28.421 12.104q-.523-.511-1.104-.956a.6.6 0 0 0-.464-.11 46 46 0 0 1-6.902.604 46 46 0 0 1-6.912-.632.6.6 0 0 0-.47.11q-.59.46-1.12.99a.58.58 0 0 0-.199.368v1.341s0 .946.033 1.496A36.3 36.3 0 0 0 13.46 26.31q.051.141.165.242c1.756 1.522 4.483 2.781 6.327 2.781s4.55-1.253 6.317-2.781a.6.6 0 0 0 .165-.242 36.3 36.3 0 0 0 2.165-10.995c0-.55.033-1.034.033-1.485v-1.347a.58.58 0 0 0-.204-.373zM18.65 22.461l-.034.055c-.69 1.22-1.805 1.375-3.058.88-1.254-.495-2.308-1.517-1.878-2.947.42-1.286 2.43-.77 3.368-.55 1.314.33 2.32 1.1 1.613 2.496.027-.032.038-.043-.023.066zm7.575-.89c-.32 1.303-1.63 1.979-2.927 2.122-1.181.12-2.23-1.023-2.274-2.2v-.087c.038-1.39 2.098-1.65 3.136-1.743 1.369-.132 2.446.33 2.065 1.908"/></g><defs><clipPath id="grndon_svg-a"><path fill="#fff" d="M0 0h40v40H0z"/></clipPath></defs></svg>
